assets/lapce/mono.svg

<svg viewBox="0 0 24 24" xmlns="http://www.w3.org/2000/svg"><path d="m3.802 1.267-2.194-1.267v24l6.392-3.69v-2.535l-4.198 2.425zm4.208 13.9v-8.936l9.993 5.769-7.798 4.503v2.533l12.187-7.036-16.586-9.576v14.016zm5.598-3.231-3.403-1.966v3.93z"/></svg>

<svg xmlns="http://www.w3.org/2000/svg" viewBox="0 0 24 24"><path d="M3.802 1.267 1.608 0v24L8 20.31v-2.535L3.802 20.2zm4.208 13.9V6.231L18.003 12l-7.798 4.503v2.533L22.392 12 5.806 2.424V16.44zm5.598-3.231L10.205 9.97v3.93z"/></svg>
